packages/icons/src/svg/flow-unfinished.svg

<svg xmlns="http://www.w3.org/2000/svg" viewBox="0 0 16 16">
  <path d="M11,1H1A.97939.97939,0,0,0,0,2V14a.97939.97939,0,0,0,1,1H11l3-7ZM10,14H2a.97939.97939,0,0,1-1-1V3A.97939.97939,0,0,1,2,2h8l3,6ZM16,2V14a.97939.97939,0,0,1-1,1H12l3-7L12,1h3A.97939.97939,0,0,1,16,2ZM7.56089,7.88086c-.70672.36914-.59627,1.64068-.59627,1.821A.29162.29162,0,0,1,6.71542,10H5.22383C5.087,10,5,9.78886,5,9.652v-.28A2.73131,2.73131,0,0,1,6.29313,6.72456c.4802-.21362.67692-.42228.67692-.8201,0-.348-.45309-.6588-.95694-.6588a1.27144,1.27144,0,0,0-.67149.18033,3.51066,3.51066,0,0,0-.66514.715.258.258,0,0,1-.19211.09877.29007.29007,0,0,1-.15586-.04893L3.30906,5.4133a.25333.25333,0,0,1-.06315-.32638,3.15459,3.15459,0,0,1,2.885-1.65636A2.78694,2.78694,0,0,1,8.9537,5.91715,2.145,2.145,0,0,1,7.56089,7.88086ZM6.7517,13H5.2483A.249.249,0,0,1,5,12.7517V11.2483A.249.249,0,0,1,5.2483,11H6.7517A.249.249,0,0,1,7,11.2483V12.7517A.249.249,0,0,1,6.7517,13Z"/>
</svg>

<svg xmlns="http://www.w3.org/2000/svg" viewBox="0 0 16 16">
	<path d="M11 1H1a.98.98 0 0 0-1 1v12a.98.98 0 0 0 1 1h10l3-7zm-1 13H2a.98.98 0 0 1-1-1V3a.98.98 0 0 1 1-1h8l3 6zm6-12v12a.98.98 0 0 1-1 1h-3l3-7-3-7h3a.98.98 0 0 1 1 1zM7.56 7.88c-.706.37-.595 1.642-.595 1.822a.292.292 0 0 1-.25.298H5.224C5.087 10 5 9.789 5 9.652v-.28a2.731 2.731 0 0 1 1.293-2.647c.48-.214.677-.423.677-.82 0-.349-.453-.66-.957-.66a1.271 1.271 0 0 0-.671.181 3.51 3.51 0 0 0-.666.715.258.258 0 0 1-.192.099.29.29 0 0 1-.155-.05l-1.02-.777a.253.253 0 0 1-.063-.326A3.155 3.155 0 0 1 6.13 3.43a2.787 2.787 0 0 1 2.823 2.486A2.145 2.145 0 0 1 7.56 7.881zM6.753 13H5.248A.249.249 0 0 1 5 12.752v-1.504A.249.249 0 0 1 5.248 11h1.504a.249.249 0 0 1 .248.248v1.504a.249.249 0 0 1-.248.248z"/>
</svg>
